images/logoTim.svg

<svg viewBox="0 0 500 500" xmlns="http://www.w3.org/2000/svg"><path d="m50 20a30.15 30.15 0 0 0 -30 30v300a30.15 30.15 0 0 0 30 30h140v20h-90.94a10 10 0 0 0 -6.87 3.75l-50 60a10 10 0 0 0 7.81 16.25h400a10 10 0 0 0 7.81-16.25l-50-60a10 10 0 0 0 -7.81-3.75h-90v-20h140a30.15 30.15 0 0 0 30-30v-300a30.15 30.15 0 0 0 -30-30zm0 20h400a10 10 0 0 1 10 10v300a10 10 0 0 1 -10 10h-400a10 10 0 0 1 -10-10v-300a10 10 0 0 1 10-10zm10 20v280h380v-280zm20 20h340v240h-340zm112.81 32.81-80 80-6.87 7.19 6.87 7.19 80 80 14.38-14.38-72.81-72.81 72.81-72.81zm114.38 0-14.38 14.38 72.81 72.81-72.81 72.81 14.38 14.38 80-80 6.87-7.19-6.87-7.19zm-97.19 267.19h80v40h-80zm-105.31 40h85.31v20h120v-20h85.31l33.44 40h-357.5z" fill="#fff"/></svg>

<svg id="Calque_1" data-name="Calque 1" xmlns="http://www.w3.org/2000/svg" viewBox="0 0 500 500"><defs><style>.cls-1{fill:#fff;}</style></defs><title>logoTim</title><path class="cls-1" d="M50,20A30.15,30.15,0,0,0,20,50V350a30.15,30.15,0,0,0,30,30H190v20H99.06a10,10,0,0,0-6.87,3.75l-50,60A10,10,0,0,0,50,480H450a10,10,0,0,0,7.81-16.25l-50-60A10,10,0,0,0,400,400H310V380H450a30.15,30.15,0,0,0,30-30V50a30.15,30.15,0,0,0-30-30Zm0,20H450a10,10,0,0,1,10,10V350a10,10,0,0,1-10,10H50a10,10,0,0,1-10-10V50A10,10,0,0,1,50,40ZM60,60V340H440V60ZM80,80H420V320H80Zm112.81,32.81-80,80L105.94,200l6.87,7.19,80,80,14.38-14.38L134.38,200l72.81-72.81Zm114.38,0-14.38,14.38L365.62,200l-72.81,72.81,14.38,14.38,80-80,6.87-7.19-6.87-7.19ZM210,380h80v40H210ZM104.69,420H190v20H310V420h85.31l33.44,40H71.25Z"/></svg>
